icons/odin-light.svg

<svg width="256" height="256" viewBox="0 0 256 256" fill="none" xmlns="http://www.w3.org/2000/svg">
<path d="M196 0H60C26.8629 0 0 26.8629 0 60V196C0 229.137 26.8629 256 60 256H196C229.137 256 256 229.137 256 196V60C256 26.8629 229.137 0 196 0Z" fill="#F4F2ED"/>
<path fill-rule="evenodd" clip-rule="evenodd" d="M71.1215 210.254C67.2873 207.622 64.2569 205.073 64.2569 205.073L162.861 34.2854C162.861 34.2854 166.92 35.7908 170.272 37.3982C174.499 39.4237 177.999 41.3984 177.999 41.3984C225.795 68.9937 242.197 130.202 214.602 177.998C187.006 225.796 125.797 242.195 78.0007 214.6C78.0007 214.6 74.6529 212.676 71.1215 210.254ZM169.666 55.8319L86.3338 200.166C126.164 223.163 177.171 209.495 200.167 169.666C223.162 129.834 209.497 78.8283 169.666 55.8319ZM45.9418 185.18C42.5908 180.327 41.398 178 41.398 178C24.1712 148.078 22.9078 110.027 41.3987 78.0002C59.8896 45.9731 93.473 28.0426 128 28C128 28 132.662 27.988 136.543 28.3597C142.391 28.92 146.278 29.6745 146.278 29.6745L51.9818 193.001C51.9818 193.001 49.7448 190.685 45.9418 185.18ZM118.025 45.2773C92.8963 48.3313 69.4517 62.7439 55.8322 86.3343C42.2126 109.923 41.4535 137.433 51.373 160.724L118.025 45.2773Z" fill="#282828"/>
</svg>

<svg xmlns="http://www.w3.org/2000/svg" width="256" height="256" fill="none"><path fill="#F4F2ED" d="M196 0H60C26.863 0 0 26.863 0 60v136c0 33.137 26.863 60 60 60h136c33.137 0 60-26.863 60-60V60c0-33.137-26.863-60-60-60"/><path fill="#282828" fill-rule="evenodd" d="M71.122 210.254a99 99 0 0 1-6.865-5.181L162.86 34.285s4.059 1.506 7.411 3.113c4.227 2.026 7.727 4 7.727 4 47.796 27.596 64.198 88.804 36.603 136.6C187.005 225.796 125.796 242.195 78 214.6c0 0-3.348-1.924-6.88-4.346m98.544-154.422-83.33 144.334c39.83 22.997 90.837 9.329 113.833-30.5 22.995-39.832 9.33-90.838-30.501-113.834M45.942 185.18c-3.351-4.853-4.544-7.18-4.544-7.18-17.227-29.922-18.49-67.973 0-100C59.89 45.973 93.474 28.043 128 28c0 0 4.662-.012 8.543.36 5.848.56 9.735 1.314 9.735 1.314L51.982 193.002s-2.237-2.316-6.04-7.821m72.083-139.903c-25.129 3.054-48.573 17.467-62.193 41.057-13.62 23.589-14.379 51.099-4.459 74.39z" clip-rule="evenodd"/></svg>
